X:1
T:Ave virgo
T:Ave virgo
T:Jean l'Heritier
T:Source : Il primo libro di madrigali a 3 voci---Venetia---A.Gardano---1559. Editor : André Vierendeels (24/10/14).
T:Notes : Original clefs : C1, C3, F3 Original note values have been halved Editorial accidentals above the staff Square brackets indicate ligatures
C:Jean l'Heritier
%%score [ 1 [ 2 3 ] ]
L:1/8
Q:1/4=100
M:2/2
K:F
V:1 treble nm="Canto" snm="C"
V:2 treble-8 nm="Tenor 1" snm="T 1"
V:3 treble-8 nm="Tenor 2" snm="T 2"
V:1
 z8 | G8 | B4 c4 | d6 c2 | B4 A4 | G3 A B2 A2- | AG FE D2 d2- | dc BA G2 c2- | c2 B2 A3 G | %9
w: |A-|ve vir-|* go|glo- ri-|o- * sa, a-|* * * * ve vir-|* * * * go glo-|* ri- o- *|
 F2 G3 F ED | E4 D2 B2- | B2 A3 G G2- |"^#" G2 F2 G4- | G4 z2 d2 | d2 d2 A2 d2- | d2 c2 B2 A2- | %16
w: |* sa, glo-|* ri- * o-|* * sa,|_ stel-|la so- le cla-||
 A2 GF E4 | D2 A2 A2 A2 | DE FG A4 | B4 A2 B2- | BA F2 G4 | F8 | z8 | z4 z2 D2 | G6 F2 | %25
w: * * * ri-|or, stel- la so-|* * * * le|da- * *|* * * ti-|or,||ma-|ter De-|
 G2 D2 F3 G | E4 D2 A2 | B2 B2 A2 d2- | d2 c2 B4 | A8 | z2 A2 d4- | d2 c2 d2 A2 | c3 d B4 | %33
w: i gra- ti- *|o- sa, ma-|ter De- i gra-|* ti- o-|sa,|ma- ter|_ De- i gra-|ti- * o-|
 A2 F2 G2 A2 | D2 A3 G FE | D2 G4 F2 | B3 A G2 F2 | E4 D4 | z2 G2 G2 G2 | c6 B2 | A2 F2 G4- | %41
w: sa, fa- vo mel-|lis dul- * * *|* * ci-||* or,|ru- bi- con-|da plus-|quam ro- sa,|
 G2 G2 F2 E2 | D2 G4 G2 | c3 B A2 G2 | A2 DE FG A2- | AG G4 F2 | B2 A3 G G2- |"^#" G2 F2 G4- | G8 | %49
w: _ plus- quam ro-|sa, li- li-|o can- di- di-|or, li- * * * *|* * * li-|o can- * di-|* di- or,|_|
 z2 c4 B2 | A4 G4- | G2 c4 B2 | A4 G2 F2 | E4 DE FG | AB c3 B B2- | B2 A2 B4- | B8 | z4 z2 B2 | %58
w: o- mnis|vir- tus,|_ o- mnis|vir- tus te|de- co- * * *||* * rat,|_|o-|
 B2 B2 c2 A2 | B4 A4 | G8 | B6 A2 | B4 A4 | c3 B GA Bc | d2 e3 d d2- | d2 c2 B3 A/G/ | %66
w: mnis san- ctus te|ho- no-|rat,|in coe-|lo su-|bli- * * * * *||* mi- or, _ _|
 FG AB c2 G2 | B3 A FG AB | c2 B4 A2- | AG G4 F2 |: E2 D2 E4 | D2 d4 c2 | d4 G2 c2- | %73
w: _ _ _ _ _ in|coe- * * * * *|* lo su-|* * bli- mi-||or, in coe-|lo su- bli-|
 c2 B2 A2 c2- | cB AG F2 A2- | AG G4 F2 :| G8 |] %77
w: * mi- or, su-|* * * * * bli-|* * * mi-|or.|
V:2
 z4 d4- | d2 d2 e4 | d2 g2 e2 f2 | Bc de fg a2- | ag g4 f2 | e2 d4 c2 | d3 c BA G2 | g3 f ed f2 | %8
w: A-|* ve vir-|go glo- ri- o-||* * sa, glo-|ri- o- *|sa, _ _ _ _|a- * * * *|
 d2 g4 f2 | d2 e4 d2- |"^#" d2 c2 d4- | d2 d2 cB AG | A4 G4 | z2 g2 g2 g2 | d2 f4 ed | %15
w: ve vir- *|go glo- ri-|* o- sa,|_ glo- ri- * * *|o- sa,|stel- la so-|le cla- * *|
 e2 e2 d2 f2 | e2 d4 c2 | f4 e2 f2- | f2 ed e2 f2 | d3 e f2 d2 | _e2 d4 c2 | d2 A2 d4- | %22
w: * ri- or, stel-|la so- le|cla- ri- or,|_ _ _ _ stel-|la _ _ so-|le cla- ri-|or, ma- ter|
 d2 c2 d2 A2 | B4 A2 d2- | d2 c2 d4 | z4 d4 | g6 f2 | g2 d2 f3 g | e4 d2 f2- | f2 e2 f4 | %30
w: _ De- i gra-|ti- * *|* o- sa,|ma-|ter De-|i gra- ti- *|o- sa, gra-|* ti- o-|
 e2 a4 g2 | f2 e2 f2 f2 | e2 a4 g2 | f3 e/d/ e2 d2 | B2 c2 d3 c | B2 c2 A2 A2 | G2 d2 e2 d2 | %37
w: sa, fa- vo|mel- lis dul- ci-|or, fa- vo|mel- * * * lis,|fa- vo mel- *|* lis- dul- ci-|or, ru- bi- con-|
 g6 f2 | e2 c2 d2 z d | e2 f2 d2 g2- | gf f4 ed | e2 d3 c c2- | c2 B2 c4 | z2 c4 c2 | f3 e d2 c2 | %45
w: da plus-|quam ro- sa, ru-|bi- con- da plus-||quam ro- * *|* * sa,|li- li-|o _ _ can-|
 B2 B2 A2 d2- | de fd e2 d2- | d2 c2 d2 g2- | g2 f2 e2 d2 | e4 z2 g2- | g2 f2 e2 d2 | e4 d3 c | %52
w: di- di- or, can-|* * * * * di-|* di- or, o-|* mnis vir- *|tus, o-|* mnis vir- tus|te de- *|
 de f2 e2 d2- | d2 c2 d4 | f4 d2 B2 | c4 B2 f2 | f2 f2 g2 d2 | f4 _e4 | d2 f2 f2 f2 | %59
w: * * co- * *|* * rat,|te de- *|co- rat, o-|mnis san- ctus te|ho- no-|rat, o- mnis san-|
 g2 d2 f2 e2- | ed d4 c2 | d2 g4 f2 | g2 d4 f2- | fe cd ef ge | f2 g2 d4 | e4 d2 G2 | d2 c3 d ef | %67
w: ctus te ho- no-||rat, in coe-|lo su- bli-|||mi- or, in|coe- lo _ _ _|
 g2 d2 f3 e | cd e2 d3 c/B/ | cB AG A2 A2 |: G4 z2 g2- | g2 f2 g4 | d2 f4 e2 | d6 e2 | f3 e d2 c2 | %75
w: _ su- bli- *||* * * * * mi-|or in|_ coe- lo|su- bli- mi-|or, in|coe- lo su- bli-|
 B2 AG A2 A2 :| G8 |] %77
w: * * * * mi-|or.|
V:3
 G8 | B4 c4 | G4 A4 | G2 B4 F2 | G4 D4 | G4 z2 F2- | F2 D2 G2 B2- | B2 G2 c2 F2 | G4 d4- | %9
w: A-|ve vir-|go glo-|ri- o- *||sa, a-|* ve vir- go|_ glo- ri- o-|sa, glo-|
 d2 c2 B4 | A4 z2 G2- | G2 F2 E4 | D4 z2 G2 | c2 c2 G4 | z2 d2 d2 d2 | A4 z4 | A4 A2 A2 | %17
w: * ri- o-|sa, glo-|* ri- o-|sa, stel-|la so- le,|stel- la so-|le,|stel la so-|
 DE FG AD d2- | d2 cB c2 d2 | GA Bc d2 G2- |"^b""^b" GF ED E2 E2 |"^b" D4 z2 D2 | G6 F2 | %23
w: le _ _ _ _ _ cla-|* * * * ri-|or, _ _ _ _ cla-|* * * * * ri-|or, ma-|ter De-|
 G2 D2 F3 G | E4 D2 d2 | c2 B3 A d2- | d2 c2 d4 | G4 z4 | A4 d4- | d2 c2 d2 A2 | c3 d B4 | %31
w: i gra- ti- *|o- sa, gra-|ti- o- * *||sa,|ma- ter|_ De- i gra-|ti- * o-|
 A2 A2 d2 d2 | A2 F2 G2 G2 | D4 z2 D2 | G2 F4 D2 | G2 E2 D4 | G4 z4 | z2 G2 G2 G2 | c6 B2 | %39
w: sa, ma- ter De-|i gra- ti- o-|sa, fa-|vo mel- lis|dul- ci- or,|_|ru- bi- con-|da plus-|
 A2 F2 G2 z G | d2 d2 c4- | c2 G2 B2 c2 | G4 z2 C2- | C2 C2 F3 E | DC B,C DE F2 | G4 D2 D2 | %46
w: quam ro- sa, ru-|bi- con- da|_ plus- quam ro-|sa li-|* li- o _|_ _ _ _ _ _ _|can- di- di-|
 G2 F2 GA BG | A2 A2 G4 | c6 B2 | A4 G4 | c6 B2 | c4 G4- | G2 F2 G4 | A4 D2 B2 | A2 F2 G4 | %55
w: or, can di- * * *|* di- or,|o- mnis|vir- tus,|o- mnis|vir- tus|_ te de-|co- rat, te|de- * co-|
 F4 B4- | B4 z2 B2 | B2 B2 c2 G2 | B4 A4 | G4 z2 c2- | c2 B2 c4 | G4 d4 | z8 | z8 | z2 c4 B2 | %65
w: * rat,|_ o-|mnis san- ctus te|ho- no-|rat, te|_ ho- no-|* rat,|||in coe-|
 c4 G2 B2- | BA FG AB c2 | G2 B3 AFG | A2 G4 F2 | E4 D4 |:"^#" z2 d4 c2 | d4 G2 c2- | c2 B2 c4 | %73
w: lo su- bli-||mi- or, _ _ _|_ su- bli-|mi- or,|in coe-|lo su- bli-|* * mi-|
 G4 z2 A2- | A2 F2 B2 F2 | G2 E2 D4 :| G8 |] %77
w: or, in|_ coe- lo su-|bli- mi- (or)|or|

